public/logos/VN.svg

<?xml version="1.0" encoding="UTF-8"?>
<svg xmlns="http://www.w3.org/2000/svg" xmlns:xlink="http://www.w3.org/1999/xlink" width="176pt" height="19.28pt" viewBox="0 0 176 19.28" version="1.1">
<defs>
<clipPath id="clip1">
  <path d="M 0 0 L 33 0 L 33 19.28125 L 0 19.28125 Z M 0 0 "/>
</clipPath>
</defs>
<g id="surface1">
<g clip-path="url(#clip1)" clip-rule="nonzero">
<path style=" stroke:none;fill-rule:nonzero;fill:rgb(79.434204%,58.572388%,10.069275%);fill-opacity:1;" d="M 16.089844 17.421875 C 15.808594 17.574219 13.800781 19.28125 9.800781 19.28125 C 6.429688 19.28125 2.832031 17.566406 1.707031 17.597656 C 1.3125 17.582031 0.988281 17.664062 0.738281 17.773438 C 0.269531 17.96875 -0.0390625 17.65625 0.00390625 17.390625 C 0.046875 17.125 0.433594 16.628906 0.714844 16.273438 C 1.054688 15.828125 1.59375 15.339844 2.164062 14.949219 C 3.757812 13.859375 5.238281 13.839844 5.894531 13.953125 C 5.996094 13.972656 6.28125 13.984375 6.730469 14.425781 C 7.820312 15.472656 9.785156 16.785156 11.292969 17.058594 C 11.453125 17.074219 12.140625 17.140625 12.148438 16.949219 C 12.15625 16.832031 11.96875 16.785156 11.902344 16.773438 C 9.476562 16.226562 8.078125 15.039062 6.742188 13.820312 C 5.65625 12.832031 4.828125 11.605469 4.207031 10.40625 C 3.714844 9.453125 3.023438 7.570312 1.769531 6.941406 C 1.488281 6.804688 1.480469 6.292969 2.066406 6.15625 C 2.472656 6.058594 4.949219 5.824219 7.894531 7.417969 C 9.054688 8.046875 9.429688 8.746094 9.472656 8.917969 C 9.472656 8.917969 9.542969 8.957031 9.558594 9.257812 C 9.714844 13.503906 11.585938 14.929688 12.488281 15.585938 C 12.855469 15.871094 13.3125 15.992188 13.4375 15.867188 C 13.492188 15.804688 13.34375 15.671875 13.246094 15.605469 C 10.640625 13.890625 10.136719 11.652344 9.996094 9.25 C 9.859375 6.863281 10.867188 4.789062 11.503906 3.09375 C 11.59375 2.851562 11.964844 1.761719 11.683594 0.835938 C 11.5 0.207031 11.695312 0.0585938 12.042969 0.0078125 C 12.394531 -0.0429688 12.925781 0.679688 13.109375 0.902344 C 13.253906 1.070312 13.722656 1.617188 14.425781 3.019531 C 15.820312 5.78125 15.832031 8.839844 15.828125 9.191406 C 15.804688 11.179688 15.4375 11.300781 14.492188 11.761719 C 13.703125 12.070312 13.257812 12.703125 13.257812 13.320312 C 13.257812 13.949219 13.726562 14.414062 14.582031 14.777344 C 14.640625 14.792969 14.738281 14.828125 14.78125 14.835938 C 15.160156 14.929688 15.472656 14.84375 15.472656 14.703125 C 15.472656 14.574219 15.101562 14.527344 15.101562 14.527344 C 14.269531 14.324219 13.691406 13.851562 13.691406 13.316406 C 13.691406 12.589844 14.714844 11.847656 16.023438 11.847656 L 16.160156 11.847656 C 17.46875 11.847656 18.488281 12.582031 18.488281 13.316406 C 18.488281 13.851562 17.914062 14.320312 17.082031 14.527344 C 17.082031 14.527344 16.710938 14.574219 16.710938 14.703125 C 16.710938 14.84375 17.019531 14.929688 17.398438 14.835938 C 17.445312 14.828125 17.539062 14.792969 17.601562 14.773438 C 18.457031 14.414062 18.921875 13.945312 18.921875 13.316406 C 18.921875 12.703125 18.484375 12.070312 17.691406 11.761719 C 16.742188 11.300781 16.382812 11.175781 16.351562 9.1875 C 16.347656 8.839844 16.363281 5.78125 17.75 3.019531 C 18.457031 1.617188 18.925781 1.070312 19.070312 0.902344 C 19.253906 0.679688 19.785156 -0.0429688 20.140625 0.0078125 C 20.488281 0.0585938 20.679688 0.207031 20.496094 0.832031 C 20.21875 1.761719 20.585938 2.851562 20.675781 3.089844 C 21.308594 4.789062 22.320312 6.863281 22.183594 9.25 C 22.042969 11.648438 21.542969 13.890625 18.933594 15.605469 C 18.832031 15.667969 18.691406 15.800781 18.746094 15.867188 C 18.867188 15.992188 19.328125 15.871094 19.691406 15.585938 C 20.59375 14.929688 22.464844 13.503906 22.621094 9.257812 C 22.640625 8.957031 22.710938 8.914062 22.710938 8.914062 C 22.753906 8.746094 23.125 8.046875 24.28125 7.417969 C 27.238281 5.820312 29.710938 6.058594 30.117188 6.152344 C 30.703125 6.292969 30.691406 6.804688 30.414062 6.9375 C 29.15625 7.570312 28.46875 9.453125 27.976562 10.402344 C 27.355469 11.605469 26.527344 12.832031 25.441406 13.820312 C 24.105469 15.039062 22.707031 16.222656 20.28125 16.773438 C 20.21875 16.785156 20.023438 16.828125 20.03125 16.949219 C 20.039062 17.140625 20.726562 17.074219 20.890625 17.058594 C 22.398438 16.785156 24.355469 15.46875 25.453125 14.425781 C 25.90625 13.984375 26.1875 13.972656 26.292969 13.953125 C 26.941406 13.839844 28.421875 13.859375 30.019531 14.949219 C 30.59375 15.335938 31.128906 15.828125 31.464844 16.269531 C 31.746094 16.628906 32.132812 17.125 32.179688 17.390625 C 32.21875 17.65625 31.914062 17.964844 31.441406 17.769531 C 31.191406 17.664062 30.871094 17.582031 30.472656 17.597656 C 29.347656 17.5625 25.75 19.28125 22.378906 19.277344 C 18.382812 19.277344 16.375 17.574219 16.089844 17.421875 "/>
</g>
<path style=" stroke:none;fill-rule:evenodd;fill:rgb(10.353088%,41.061401%,61.851501%);fill-opacity:1;" d="M 47.070312 6.015625 L 45.914062 6.015625 L 41.472656 15.695312 L 36.957031 6.015625 L 34.082031 6.015625 C 34.90625 6.875 35.160156 7.0625 35.621094 8.09375 L 40.578125 18.753906 L 40.964844 18.753906 L 45.96875 7.789062 C 46.351562 6.972656 46.554688 6.648438 47.070312 6.015625 "/>
<path style=" stroke:none;fill-rule:evenodd;fill:rgb(10.353088%,41.061401%,61.851501%);fill-opacity:1;" d="M 50.019531 18.566406 C 49.632812 17.726562 49.660156 17.238281 49.660156 16.609375 L 49.660156 11.542969 C 49.660156 10.9375 49.632812 10.425781 50.019531 9.605469 L 47.324219 9.605469 C 47.710938 10.425781 47.683594 10.9375 47.683594 11.542969 L 47.683594 16.609375 C 47.683594 17.542969 47.710938 17.773438 47.324219 18.566406 Z M 49.863281 7.203125 C 49.863281 6.625 49.296875 6.109375 48.65625 6.109375 C 48.042969 6.109375 47.480469 6.625 47.480469 7.203125 C 47.480469 7.765625 48.042969 8.277344 48.65625 8.277344 C 49.296875 8.277344 49.863281 7.765625 49.863281 7.203125 "/>
<path style=" stroke:none;fill-rule:evenodd;fill:rgb(10.353088%,41.061401%,61.851501%);fill-opacity:1;" d="M 59.183594 12.476562 L 54.128906 12.476562 C 54.433594 11.171875 55.355469 10.140625 56.871094 10.050781 C 57.464844 10.003906 59.058594 10.074219 59.183594 12.476562 Z M 61.546875 13.175781 C 61.1875 9.605469 58.339844 9.210938 56.566406 9.398438 C 52.6875 9.839844 51.359375 12.875 51.664062 14.738281 C 51.839844 15.675781 52.332031 16.910156 53.535156 17.796875 C 54.613281 18.566406 57.746094 19.78125 60.644531 17.609375 L 60.265625 17.1875 C 59.519531 17.84375 58.210938 18.101562 57.335938 18.078125 C 55.414062 17.984375 53.691406 16.253906 53.972656 13.175781 L 61.546875 13.175781 "/>
<path style=" stroke:none;fill-rule:evenodd;fill:rgb(10.353088%,41.061401%,61.851501%);fill-opacity:1;" d="M 69.335938 16.703125 C 68.414062 17.707031 67.722656 18.171875 66.792969 18.144531 C 65.691406 18.125 64.871094 17.566406 64.871094 16.304688 L 64.871094 10.308594 L 68.824219 10.308594 L 68.824219 9.605469 L 64.871094 9.605469 L 64.871094 7.972656 L 62.65625 8.488281 C 62.820312 8.976562 62.84375 8.976562 62.867188 9.605469 L 62.304688 9.605469 L 62.304688 10.308594 L 62.890625 10.308594 L 62.890625 16.070312 C 62.890625 18.238281 64.871094 18.707031 66.046875 18.730469 C 66.976562 18.730469 67.871094 18.636719 69.003906 17.9375 L 69.335938 16.703125 "/>
<path style=" stroke:none;fill-rule:evenodd;fill:rgb(10.353088%,41.061401%,61.851501%);fill-opacity:1;" d="M 80.132812 18.566406 C 79.773438 17.726562 79.796875 16.910156 79.796875 16.628906 L 79.796875 12.289062 C 79.796875 10.984375 79.617188 10.703125 78.976562 10.167969 C 78.234375 9.535156 76.847656 9.421875 76.203125 9.445312 C 74.84375 9.535156 73.664062 10.167969 72.480469 11.476562 C 72.511719 10.398438 72.433594 9.910156 72.253906 9.605469 C 71.636719 9.605469 70.378906 9.605469 69.890625 9.605469 C 70.558594 10.609375 70.507812 11.78125 70.507812 11.9375 L 70.507812 16.628906 C 70.507812 17.542969 70.53125 17.773438 70.148438 18.566406 L 72.84375 18.566406 C 72.457031 17.726562 72.480469 16.9375 72.480469 16.628906 L 72.480469 13.738281 C 72.480469 12.125 74.175781 10.261719 75.925781 10.238281 C 77.59375 10.1875 77.824219 11.007812 77.824219 13.246094 L 77.824219 16.628906 C 77.824219 17.542969 77.824219 17.773438 77.460938 18.566406 L 80.132812 18.566406 "/>
<path style=" stroke:none;fill-rule:evenodd;fill:rgb(10.353088%,41.061401%,61.851501%);fill-opacity:1;" d="M 88.496094 14.296875 C 88.496094 16.582031 86.671875 17.867188 85.492188 17.84375 C 83.902344 17.773438 82.699219 16.375 83.902344 14.71875 C 84.210938 14.269531 85.082031 13.757812 86.339844 13.550781 C 86.621094 13.503906 87.496094 13.339844 88.496094 12.945312 C 88.496094 13.503906 88.496094 14.296875 88.496094 14.296875 Z M 91.316406 18.566406 C 90.546875 17.46875 90.46875 16.746094 90.46875 16.1875 L 90.46875 13.199219 C 90.46875 12.664062 90.523438 11.988281 90.289062 11.425781 C 89.550781 9.398438 86.160156 9.140625 84.179688 9.558594 C 83.4375 9.722656 83.003906 9.910156 82.179688 10.308594 L 82 11.59375 C 83.257812 10.445312 84.59375 10.097656 85.621094 10.074219 C 87.800781 10.003906 88.546875 10.867188 88.496094 11.570312 C 88.445312 13.015625 86.160156 12.875 84.59375 13.15625 C 82.3125 13.574219 81.257812 14.507812 81.257812 15.90625 C 81.257812 17.214844 82.515625 18.636719 84.71875 18.777344 C 85.832031 18.847656 87.160156 18.335938 88.519531 16.722656 C 88.574219 17.707031 88.625 18.144531 88.882812 18.566406 C 89.550781 18.566406 90.628906 18.566406 91.316406 18.566406 "/>
<path style=" stroke:none;fill-rule:evenodd;fill:rgb(10.353088%,41.061401%,61.851501%);fill-opacity:1;" d="M 107.101562 18.542969 C 106.738281 17.707031 106.738281 16.886719 106.738281 16.609375 L 106.738281 12.242188 C 106.738281 9.890625 105.714844 9.351562 104.507812 9.421875 C 103.25 9.492188 101.914062 10.140625 100.8125 11.542969 C 100.503906 9.769531 99.601562 9.371094 98.578125 9.445312 C 97.242188 9.511719 96.085938 10.167969 94.90625 11.476562 C 94.933594 10.398438 94.855469 9.910156 94.675781 9.605469 C 94.058594 9.605469 92.804688 9.605469 92.316406 9.605469 C 92.980469 10.609375 92.929688 11.78125 92.929688 11.9375 L 92.929688 16.628906 C 92.929688 17.542969 92.957031 17.773438 92.570312 18.566406 L 95.265625 18.566406 C 94.886719 17.726562 94.90625 16.9375 94.90625 16.628906 L 94.90625 13.738281 C 94.90625 12.476562 95.882812 11.125 97.113281 10.566406 C 99.015625 9.679688 98.859375 12.992188 98.859375 13.226562 L 98.859375 16.609375 C 98.859375 17.515625 98.882812 17.773438 98.503906 18.542969 L 101.195312 18.542969 C 100.8125 17.707031 100.835938 16.9375 100.835938 16.609375 L 100.835938 13.738281 C 100.835938 12.476562 101.785156 11.101562 103.046875 10.542969 C 104.941406 9.652344 104.785156 12.96875 104.785156 13.199219 L 104.785156 16.609375 C 104.785156 17.492188 104.785156 17.75 104.429688 18.542969 L 107.101562 18.542969 "/>
<path style=" stroke:none;fill-rule:evenodd;fill:rgb(10.353088%,41.061401%,61.851501%);fill-opacity:1;" d="M 117.910156 13.035156 L 114.113281 13.035156 L 116.015625 8.882812 Z M 123.378906 18.59375 C 122.5625 17.707031 122.304688 17.542969 121.839844 16.515625 L 116.886719 5.847656 L 116.503906 5.847656 L 111.46875 16.816406 C 111.109375 17.632812 110.90625 17.9375 110.367188 18.59375 L 111.550781 18.59375 L 113.679688 13.925781 L 118.355469 13.925781 L 120.503906 18.59375 L 123.378906 18.59375 "/>
<path style=" stroke:none;fill-rule:evenodd;fill:rgb(10.353088%,41.061401%,61.851501%);fill-opacity:1;" d="M 126.734375 18.566406 C 126.355469 17.726562 126.375 17.238281 126.375 16.609375 L 126.375 11.542969 C 126.375 10.9375 126.355469 10.425781 126.734375 9.605469 L 124.039062 9.605469 C 124.429688 10.425781 124.402344 10.9375 124.402344 11.542969 L 124.402344 16.609375 C 124.402344 17.542969 124.429688 17.773438 124.039062 18.566406 Z M 126.585938 7.203125 C 126.585938 6.625 126.019531 6.109375 125.378906 6.109375 C 124.761719 6.109375 124.195312 6.625 124.195312 7.203125 C 124.195312 7.765625 124.761719 8.277344 125.378906 8.277344 C 126.019531 8.277344 126.585938 7.765625 126.585938 7.203125 "/>
<path style=" stroke:none;fill-rule:evenodd;fill:rgb(10.353088%,41.061401%,61.851501%);fill-opacity:1;" d="M 136.339844 9.445312 C 133.285156 8.929688 131.773438 10.375 130.929688 11.476562 C 130.949219 10.425781 130.871094 9.933594 130.695312 9.605469 C 130.078125 9.605469 128.820312 9.605469 128.332031 9.605469 C 129 10.609375 128.945312 11.78125 128.945312 11.9375 L 128.945312 16.628906 C 128.945312 17.542969 128.972656 17.773438 128.589844 18.566406 L 131.277344 18.566406 C 130.898438 17.75 130.929688 17.214844 130.929688 16.628906 L 130.929688 13.738281 C 130.929688 12.242188 132.746094 9.328125 135.3125 10.703125 L 136.339844 9.445312 "/>
<path style=" stroke:none;fill-rule:evenodd;fill:rgb(10.353088%,41.061401%,61.851501%);fill-opacity:1;" d="M 139.394531 18.566406 C 139.007812 17.75 139.03125 17.515625 139.03125 16.582031 L 139.03125 7.109375 C 139.03125 6.175781 139.007812 5.945312 139.394531 5.105469 L 136.699219 5.105469 C 137.085938 5.945312 137.0625 6.175781 137.0625 7.109375 L 137.0625 16.582031 C 137.0625 17.214844 137.085938 17.707031 136.699219 18.566406 L 139.394531 18.566406 "/>
<path style=" stroke:none;fill-rule:evenodd;fill:rgb(10.353088%,41.061401%,61.851501%);fill-opacity:1;" d="M 143.9375 18.566406 C 143.554688 17.726562 143.578125 17.238281 143.578125 16.609375 L 143.578125 11.542969 C 143.578125 10.9375 143.554688 10.425781 143.9375 9.605469 L 141.246094 9.605469 C 141.632812 10.425781 141.605469 10.9375 141.605469 11.542969 L 141.605469 16.609375 C 141.605469 17.542969 141.632812 17.773438 141.246094 18.566406 Z M 143.785156 7.203125 C 143.785156 6.625 143.222656 6.109375 142.582031 6.109375 C 141.964844 6.109375 141.402344 6.625 141.402344 7.203125 C 141.402344 7.765625 141.964844 8.277344 142.582031 8.277344 C 143.222656 8.277344 143.785156 7.765625 143.785156 7.203125 "/>
<path style=" stroke:none;fill-rule:evenodd;fill:rgb(10.353088%,41.061401%,61.851501%);fill-opacity:1;" d="M 155.769531 18.566406 C 155.414062 17.726562 155.441406 16.910156 155.441406 16.628906 L 155.441406 12.289062 C 155.441406 10.984375 155.261719 10.703125 154.621094 10.167969 C 153.875 9.535156 152.488281 9.421875 151.851562 9.445312 C 150.484375 9.535156 149.308594 10.167969 148.128906 11.476562 C 148.15625 10.398438 148.074219 9.910156 147.894531 9.605469 C 147.277344 9.605469 146.019531 9.605469 145.535156 9.605469 C 146.199219 10.609375 146.152344 11.78125 146.152344 11.9375 L 146.152344 16.628906 C 146.152344 17.542969 146.175781 17.773438 145.789062 18.566406 L 148.480469 18.566406 C 148.101562 17.726562 148.128906 16.9375 148.128906 16.628906 L 148.128906 13.738281 C 148.128906 12.125 149.820312 10.261719 151.566406 10.238281 C 153.234375 10.1875 153.464844 11.007812 153.464844 13.246094 L 153.464844 16.628906 C 153.464844 17.542969 153.464844 17.773438 153.109375 18.566406 L 155.769531 18.566406 "/>
<path style=" stroke:none;fill-rule:evenodd;fill:rgb(10.353088%,41.061401%,61.851501%);fill-opacity:1;" d="M 164.832031 12.476562 L 159.773438 12.476562 C 160.082031 11.171875 161.007812 10.140625 162.523438 10.050781 C 163.113281 10.003906 164.703125 10.074219 164.832031 12.476562 Z M 167.191406 13.175781 C 166.835938 9.605469 163.984375 9.210938 162.214844 9.398438 C 158.335938 9.839844 157 12.875 157.3125 14.738281 C 157.492188 15.675781 157.980469 16.910156 159.1875 17.796875 C 160.265625 18.566406 163.390625 19.78125 166.292969 17.609375 L 165.90625 17.1875 C 165.164062 17.84375 163.859375 18.101562 162.984375 18.078125 C 161.058594 17.984375 159.339844 16.253906 159.617188 13.175781 L 167.191406 13.175781 "/>
<path style=" stroke:none;fill-rule:evenodd;fill:rgb(10.353088%,41.061401%,61.851501%);fill-opacity:1;" d="M 175.984375 16.167969 C 176.238281 14.296875 173.035156 13.226562 172.03125 12.875 C 170.4375 12.289062 169.875 11.871094 169.929688 11.078125 C 169.953125 10.46875 170.699219 10.050781 171.574219 10.027344 C 172.367188 10.003906 173.78125 10.261719 175.34375 11.496094 L 175.164062 10.238281 C 173.421875 9.371094 172.007812 9.351562 171.519531 9.371094 C 169.597656 9.445312 168.335938 10.238281 168.15625 11.171875 C 167.71875 13.175781 169.722656 13.925781 171.339844 14.507812 C 175.882812 16.167969 173.675781 18.195312 171.441406 18.195312 C 169.777344 18.195312 168.183594 17.074219 167.640625 16.609375 L 167.800781 17.84375 C 169.15625 18.636719 170.46875 18.824219 171.339844 18.847656 C 173.652344 18.890625 175.78125 17.773438 175.984375 16.167969 "/>
</g>
</svg>

<svg xmlns="http://www.w3.org/2000/svg" width="176pt" height="25.707" viewBox="0 0 176 19.28"><defs><clipPath id="a"><path d="M0 0h33v19.281H0Zm0 0"/></clipPath></defs><g clip-path="url(#a)"><path d="M16.09 17.422c-.281.152-2.29 1.86-6.29 1.86-3.37 0-6.968-1.716-8.093-1.684a2.2 2.2 0 0 0-.969.175c-.468.196-.777-.117-.734-.382.043-.266.43-.762.71-1.118.34-.445.88-.933 1.45-1.324 1.594-1.09 3.074-1.11 3.73-.996.102.02.387.031.836.473 1.09 1.047 3.055 2.36 4.563 2.633.16.015.848.082.855-.11.008-.117-.18-.164-.246-.176-2.425-.546-3.824-1.734-5.16-2.953-1.086-.988-1.914-2.215-2.535-3.414-.492-.953-1.184-2.836-2.437-3.465-.282-.136-.29-.648.296-.785.407-.097 2.883-.332 5.829 1.262 1.16.629 1.535 1.328 1.578 1.5 0 0 .07.039.086.34.156 4.246 2.027 5.672 2.93 6.328.366.285.823.406.948.281.055-.062-.093-.195-.19-.262-2.606-1.714-3.11-3.953-3.25-6.355-.138-2.387.87-4.46 1.507-6.156.09-.242.46-1.332.18-2.258-.184-.629.011-.777.359-.828.352-.051.883.672 1.066.894.145.168.614.715 1.317 2.118 1.394 2.761 1.406 5.82 1.402 6.171-.023 1.989-.39 2.11-1.336 2.57-.789.31-1.234.942-1.234 1.56 0 .628.469 1.093 1.324 1.456.059.016.156.051.2.059.378.094.69.008.69-.133 0-.129-.37-.176-.37-.176-.832-.203-1.41-.675-1.41-1.21 0-.727 1.023-1.47 2.331-1.47h.137c1.309 0 2.328.735 2.328 1.47 0 .535-.574 1.003-1.406 1.21 0 0-.371.047-.371.176 0 .14.309.227.687.133.047-.008.141-.043.204-.063.855-.359 1.32-.828 1.32-1.457 0-.613-.438-1.246-1.23-1.554-.95-.461-1.31-.586-1.34-2.575-.004-.347.011-3.406 1.398-6.167.707-1.403 1.176-1.95 1.32-2.118.184-.222.715-.945 1.07-.894.348.05.54.199.356.824-.277.93.09 2.02.18 2.258.633 1.7 1.644 3.773 1.508 6.16-.141 2.398-.641 4.64-3.25 6.355-.102.063-.243.196-.188.262.121.125.582.004.945-.281.903-.656 2.774-2.082 2.93-6.328.02-.301.09-.344.09-.344.043-.168.414-.867 1.57-1.496 2.957-1.598 5.43-1.36 5.836-1.266.586.141.574.653.297.785-1.258.633-1.945 2.516-2.437 3.465-.622 1.203-1.45 2.43-2.536 3.418-1.336 1.22-2.734 2.403-5.16 2.953-.062.012-.258.055-.25.176.008.192.696.125.86.11 1.507-.274 3.464-1.59 4.562-2.633.453-.442.735-.453.84-.473.648-.113 2.129-.094 3.727.996.574.387 1.109.88 1.445 1.32.281.36.668.856.715 1.122.039.265-.266.574-.739.379a2.2 2.2 0 0 0-.968-.172c-1.125-.035-4.723 1.683-8.094 1.68-3.996 0-6.004-1.704-6.29-1.856" style="stroke:none;fill-rule:nonzero;fill:#cb951a;fill-opacity:1"/></g><path d="M47.07 6.016h-1.156l-4.441 9.68-4.516-9.68h-2.875c.824.859 1.078 1.047 1.54 2.078l4.956 10.66h.387l5.004-10.965c.383-.816.586-1.14 1.101-1.773M50.02 18.566c-.387-.84-.36-1.328-.36-1.957v-5.066c0-.605-.027-1.117.36-1.938h-2.696c.387.82.36 1.332.36 1.938v5.066c0 .934.027 1.164-.36 1.957Zm-.157-11.363c0-.578-.566-1.094-1.207-1.094-.613 0-1.176.516-1.176 1.094 0 .563.563 1.074 1.176 1.074.64 0 1.207-.511 1.207-1.074M59.184 12.477h-5.055c.305-1.305 1.226-2.336 2.742-2.426.594-.047 2.188.023 2.313 2.426m2.363.699c-.36-3.57-3.207-3.965-4.98-3.778-3.88.442-5.208 3.477-4.903 5.34.176.938.668 2.172 1.871 3.059 1.078.77 4.211 1.984 7.11-.188l-.38-.422c-.745.657-2.054.915-2.93.891-1.92-.094-3.644-1.824-3.362-4.902zM69.336 16.703c-.922 1.004-1.613 1.469-2.543 1.442-1.102-.02-1.922-.579-1.922-1.84v-5.996h3.953v-.704h-3.953V7.973l-2.215.515c.164.489.188.489.211 1.117h-.562v.704h.586v5.761c0 2.168 1.98 2.637 3.156 2.66.93 0 1.824-.093 2.957-.793zM80.133 18.566c-.36-.84-.336-1.656-.336-1.937v-4.34c0-1.305-.18-1.586-.82-2.121-.743-.633-2.13-.746-2.774-.723-1.36.09-2.539.723-3.723 2.032.032-1.079-.046-1.567-.226-1.872H69.89c.668 1.004.617 2.176.617 2.332v4.692c0 .914.023 1.144-.36 1.937h2.696c-.387-.84-.364-1.628-.364-1.937v-2.89c0-1.614 1.696-3.477 3.446-3.5 1.668-.052 1.898.769 1.898 3.007v3.383c0 .914 0 1.144-.363 1.937zM88.496 14.297c0 2.285-1.824 3.57-3.004 3.547-1.59-.07-2.793-1.469-1.59-3.125.309-.45 1.18-.961 2.438-1.168.281-.047 1.156-.211 2.156-.606zm2.82 4.27c-.77-1.098-.847-1.82-.847-2.38V13.2c0-.535.054-1.21-.18-1.773-.738-2.028-4.129-2.285-6.11-1.867-.742.164-1.175.351-2 .75L82 11.594c1.258-1.149 2.594-1.496 3.621-1.52 2.18-.07 2.926.793 2.875 1.496-.05 1.446-2.336 1.305-3.902 1.586-2.281.418-3.336 1.352-3.336 2.75 0 1.309 1.258 2.73 3.46 2.871 1.114.07 2.442-.441 3.802-2.054.054.984.105 1.422.363 1.843zM107.102 18.543c-.364-.836-.364-1.656-.364-1.934v-4.367c0-2.351-1.023-2.89-2.23-2.82-1.258.07-2.594.719-3.695 2.121-.31-1.773-1.211-2.172-2.235-2.098-1.336.067-2.492.723-3.672 2.032.028-1.079-.05-1.567-.23-1.872h-2.36c.664 1.004.614 2.176.614 2.332v4.692c0 .914.027 1.144-.36 1.937h2.696c-.38-.84-.36-1.628-.36-1.937v-2.89c0-1.262.977-2.614 2.207-3.173 1.903-.886 1.746 2.426 1.746 2.66v3.383c0 .907.024 1.164-.355 1.934h2.691c-.382-.836-.36-1.605-.36-1.934v-2.87c0-1.262.95-2.637 2.212-3.196 1.894-.89 1.738 2.426 1.738 2.656v3.41c0 .883 0 1.141-.355 1.934zM117.91 13.035h-3.797l1.903-4.152Zm5.469 5.559c-.817-.887-1.074-1.051-1.54-2.078l-4.952-10.668h-.383l-5.035 10.968c-.36.817-.563 1.122-1.102 1.778h1.184l2.129-4.668h4.675l2.149 4.668zM126.734 18.566c-.379-.84-.359-1.328-.359-1.957v-5.066c0-.605-.02-1.117.36-1.938h-2.696c.39.82.363 1.332.363 1.938v5.066c0 .934.028 1.164-.363 1.957Zm-.148-11.363c0-.578-.566-1.094-1.207-1.094-.617 0-1.184.516-1.184 1.094 0 .563.567 1.074 1.184 1.074.64 0 1.207-.511 1.207-1.074M136.34 9.445c-3.055-.515-4.567.93-5.41 2.032.02-1.051-.059-1.543-.235-1.872h-2.363c.668 1.004.613 2.176.613 2.332v4.692c0 .914.028 1.144-.355 1.937h2.687c-.379-.816-.347-1.351-.347-1.937v-2.89c0-1.497 1.816-4.41 4.382-3.036zM139.395 18.566c-.387-.816-.364-1.05-.364-1.984V7.109c0-.933-.023-1.164.364-2.004h-2.696c.387.84.363 1.07.363 2.004v9.473c0 .633.024 1.125-.363 1.984zM143.938 18.566c-.383-.84-.36-1.328-.36-1.957v-5.066c0-.605-.023-1.117.36-1.938h-2.692c.387.82.36 1.332.36 1.938v5.066c0 .934.027 1.164-.36 1.957Zm-.153-11.363c0-.578-.562-1.094-1.203-1.094-.617 0-1.18.516-1.18 1.094 0 .563.563 1.074 1.18 1.074.64 0 1.203-.511 1.203-1.074M155.77 18.566c-.356-.84-.329-1.656-.329-1.937v-4.34c0-1.305-.18-1.586-.82-2.121-.746-.633-2.133-.746-2.77-.723-1.367.09-2.542.723-3.722 2.032.027-1.079-.055-1.567-.234-1.872h-2.36c.664 1.004.617 2.176.617 2.332v4.692c0 .914.024 1.144-.363 1.937h2.691c-.378-.84-.351-1.628-.351-1.937v-2.89c0-1.614 1.691-3.477 3.437-3.5 1.668-.052 1.899.769 1.899 3.007v3.383c0 .914 0 1.144-.356 1.937zM164.832 12.477h-5.059c.309-1.305 1.235-2.336 2.75-2.426.59-.047 2.18.023 2.309 2.426m2.36.699c-.356-3.57-3.208-3.965-4.977-3.778-3.88.442-5.215 3.477-4.903 5.34.18.938.668 2.172 1.875 3.059 1.079.77 4.204 1.984 7.106-.188l-.387-.422c-.742.657-2.047.915-2.922.891-1.925-.094-3.644-1.824-3.367-4.902zM175.984 16.168c.254-1.871-2.949-2.941-3.953-3.293-1.594-.586-2.156-1.004-2.101-1.797.023-.61.77-1.027 1.644-1.05.793-.024 2.207.234 3.77 1.468l-.18-1.258c-1.742-.867-3.156-.886-3.644-.867-1.922.074-3.184.867-3.364 1.8-.437 2.005 1.567 2.755 3.184 3.337 4.543 1.66 2.336 3.687.101 3.687-1.664 0-3.257-1.12-3.8-1.586l.16 1.235a7.4 7.4 0 0 0 3.539 1.004c2.312.043 4.441-1.075 4.644-2.68" style="stroke:none;fill-rule:evenodd;fill:#1a699e;fill-opacity:1"/></svg>
